X:191
T: Kurze Passion Christi
N: A0548
O: Europa, Mitteleuropa, Deutschland
N: Beuttner 1602 II No. 13. Variante von A0516.
R: Romanze, Ballade, Lied, religioeses Lied
M: 4/1
L: 1/2
K: D
A | _B2G2B2=c2 | d4d3
d | =c2A2_B2G2 | A4z3
G | A2d2=c2c2 | G2G2=F2
_B2 | A2G=FG2FE | D4
G4 | =FED2=C2c2 | A3=FG2FE | D4-D3

@@@ Tune index: 504
